synths/sINR.svg

<svg width="42" height="42" viewBox="0 0 42 42" fill="none" xmlns="http://www.w3.org/2000/svg">
<g clip-path="url(#clip0_7277_57817)">
<mask id="mask0_7277_57817" style="mask-type:alpha" maskUnits="userSpaceOnUse" x="0" y="0" width="42" height="42">
<circle cx="21" cy="21" r="21" fill="url(#paint0_linear_7277_57817)"/>
</mask>
<g mask="url(#mask0_7277_57817)">
<circle cx="21" cy="21" r="21" fill="#34EDB3"/>
<circle cx="21" cy="21" r="18.2" fill="white"/>
</g>
<circle cx="21" cy="21" r="16.1" fill="#06061B"/>
<circle cx="21.1" cy="21.1" r="16.1" fill="#06061B"/>
<path d="M16.4346 20.1528C16.5017 20.1528 16.6025 20.1528 16.7369 20.1528C16.878 20.1528 17.0224 20.1528 17.1702 20.1528C17.3248 20.1528 17.4692 20.1528 17.6036 20.1528C17.7447 20.1461 17.8488 20.1427 17.916 20.1427C18.2049 20.1427 18.4837 20.1393 18.7525 20.1326C19.0212 20.1259 19.2765 20.0889 19.5184 20.0218C19.7603 19.9546 19.9887 19.8471 20.2037 19.6993C20.4187 19.5447 20.6169 19.323 20.7983 19.0341H15.971C16.0516 18.8393 16.1557 18.6243 16.2834 18.3891C16.4178 18.1473 16.5488 17.9188 16.6764 17.7038C16.8242 17.4553 16.9788 17.2067 17.14 16.9581H20.4355C20.4355 16.8707 20.3918 16.77 20.3045 16.6557C20.2239 16.5415 20.1164 16.434 19.982 16.3332C19.8476 16.2257 19.6998 16.1384 19.5386 16.0712C19.384 15.9973 19.2362 15.9604 19.0951 15.9604H15.85C15.9038 15.8797 15.981 15.7689 16.0818 15.6278C16.1826 15.48 16.2935 15.3221 16.4144 15.1541C16.5353 14.9862 16.6563 14.8148 16.7772 14.6402C16.9049 14.4588 17.0191 14.2975 17.1199 14.1564C17.2274 14.0086 17.3147 13.891 17.3819 13.8037C17.4558 13.7096 17.4961 13.6626 17.5028 13.6626H25.5752C25.5819 13.6693 25.5618 13.7298 25.5148 13.844C25.4677 13.9582 25.4073 14.0993 25.3334 14.2673C25.2662 14.4352 25.1889 14.62 25.1016 14.8216C25.0209 15.0164 24.9437 15.1978 24.8698 15.3658C24.7959 15.5337 24.732 15.6748 24.6783 15.789C24.6245 15.9033 24.5977 15.9604 24.5977 15.9604H23.479C23.4925 16.0007 23.5126 16.0679 23.5395 16.1619C23.5731 16.2493 23.6067 16.3467 23.6403 16.4542C23.6739 16.5617 23.7041 16.6625 23.731 16.7565C23.7578 16.8506 23.7746 16.9178 23.7814 16.9581H26.4218L25.1822 19.0341H23.8721C23.7578 19.5716 23.5731 20.0184 23.3178 20.3745C23.0625 20.7306 22.7601 21.0228 22.4108 21.2513C22.0614 21.473 21.6818 21.6477 21.272 21.7753C20.8688 21.8963 20.459 21.9903 20.0424 22.0575L24.1542 27.7213V28.5376H21.3123L16.4346 22.0373V20.1528Z" fill="white"/>
</g>
<defs>
<linearGradient id="paint0_linear_7277_57817" x1="21" y1="0" x2="21" y2="61.4091" gradientUnits="userSpaceOnUse">
<stop stop-color="#08021E"/>
<stop offset="1" stop-color="#1F0777"/>
</linearGradient>
<clipPath id="clip0_7277_57817">
<rect width="42" height="42" fill="white"/>
</clipPath>
</defs>
</svg>

<svg xmlns="http://www.w3.org/2000/svg" width="42" height="42" fill="none"><g clip-path="url(#a)"><mask id="c" width="42" height="42" x="0" y="0" maskUnits="userSpaceOnUse" style="mask-type:alpha"><circle cx="21" cy="21" r="21" fill="url(#b)"/></mask><g mask="url(#c)"><circle cx="21" cy="21" r="21" fill="#34EDB3"/><circle cx="21" cy="21" r="18.2" fill="#fff"/></g><circle cx="21" cy="21" r="16.1" fill="#06061B"/><circle cx="21.1" cy="21.1" r="16.1" fill="#06061B"/><path fill="#fff" d="M16.435 20.153h1.169a7.32 7.32 0 0 1 .312-.01c.289 0 .568-.004.837-.01.268-.007.523-.044.765-.111s.47-.175.686-.323c.215-.154.413-.376.594-.665h-4.827c.08-.195.185-.41.312-.645a22.69 22.69 0 0 1 .857-1.431h3.296c0-.087-.044-.188-.131-.302a1.465 1.465 0 0 0-.323-.323 1.838 1.838 0 0 0-.443-.262 1.028 1.028 0 0 0-.444-.11H15.85c.054-.081.131-.192.232-.333.1-.148.212-.306.332-.474.121-.168.242-.34.363-.514l.343-.484c.107-.147.195-.265.262-.352a.888.888 0 0 1 .12-.141h8.073c.007.006-.013.067-.06.181-.047.114-.108.255-.182.423-.067.168-.144.353-.231.555a27.434 27.434 0 0 1-.424.967l-.08.171h-1.119c.014.04.034.108.06.202.034.087.068.185.101.292.034.108.064.209.091.302.027.095.044.162.05.202h2.64l-1.239 2.076h-1.31c-.114.538-.299.984-.554 1.34a3.406 3.406 0 0 1-.907.877 4.75 4.75 0 0 1-1.139.524 9.58 9.58 0 0 1-1.23.283l4.112 5.663v.817h-2.842l-4.877-6.5v-1.885Z"/></g><defs><linearGradient id="b" x1="21" x2="21" y1="0" y2="61.409" gradientUnits="userSpaceOnUse"><stop stop-color="#08021E"/><stop offset="1" stop-color="#1F0777"/></linearGradient><clipPath id="a"><path fill="#fff" d="M0 0h42v42H0z"/></clipPath></defs></svg>
